(Exported by FreeCAD)
(Post Processor: linuxcnc_post)
(Output Time:2021-10-20 22:19:21.172482)
(begin preamble)
G17 G54 G40 G49 G80 G90
G21
(begin operation: Fixture)
(machine: not set, mm/min)
G54 
(finish operation: Fixture)
(begin operation: endmill-3mm001)
(machine: not set, mm/min)
(endmill-3mm001) 
M5
M6 T1 
G43 H1 
M3 S0 
(finish operation: endmill-3mm001)
(begin operation: Pocket_Shape)
(machine: not set, mm/min)
(Pocket_Shape) 
G0 Z18.000 
G0 X114.398 Y155.674 
G0 Z16.000 
G1 X114.398 Y155.674 Z11.500 F300.000 
G2 X109.085 Y141.985 Z11.500 I-5.673 J-5.674 F300.000 
G2 X108.365 Y158.015 Z11.500 I-0.360 J8.015 F300.000 
G2 X114.398 Y155.674 Z11.500 I0.360 J-8.015 F300.000 
G0 Z18.000 
G0 X106.579 Y157.723 Z18.000 
G0 X106.579 Y157.723 Z16.000 
G1 X106.579 Y157.723 Z11.500 F300.000 
G1 X100.991 Y152.135 Z11.500 F300.000 
G2 X106.579 Y157.723 Z11.500 I7.705 J-2.118 F300.000 
G2 X110.832 Y157.734 Z11.500 I2.146 J-7.499 F300.000 
G1 X100.986 Y147.887 Z11.500 F300.000 
G3 X102.407 Y145.066 Z11.500 I7.551 J2.037 F300.000 
G1 X113.662 Y156.321 Z11.500 F300.000 
G2 X115.643 Y154.059 Z11.500 I-4.814 J-6.216 F300.000 
G1 X104.670 Y143.086 Z11.500 F300.000 
G3 X107.857 Y142.030 Z11.500 I3.959 J6.616 F300.000 
G1 X116.696 Y150.869 Z11.500 F300.000 
G2 X114.270 Y144.201 Z11.500 I-7.943 J-0.886 F300.000 
G1 X114.270 Y144.201 Z10.000 F300.000 
G3 X116.696 Y150.869 Z10.000 I-5.517 J5.783 F300.000 
G1 X107.857 Y142.030 Z10.000 F300.000 
G2 X104.670 Y143.086 Z10.000 I0.772 J7.671 F300.000 
G1 X115.643 Y154.059 Z10.000 F300.000 
G3 X113.662 Y156.321 Z10.000 I-6.795 J-3.954 F300.000 
G1 X102.407 Y145.066 Z10.000 F300.000 
G2 X100.986 Y147.887 Z10.000 I6.129 J4.858 F300.000 
G1 X110.832 Y157.734 Z10.000 F300.000 
G3 X106.579 Y157.723 Z10.000 I-2.108 J-7.509 F300.000 
G3 X100.991 Y152.135 Z10.000 I2.118 J-7.705 F300.000 
G1 X106.579 Y157.723 Z10.000 F300.000 
G0 Z18.000 
G0 X106.576 Y157.730 Z18.000 
G0 X106.576 Y157.730 Z16.000 
G1 X106.576 Y157.730 Z10.000 F300.000 
G2 X108.365 Y158.015 Z10.000 I2.149 J-7.730 F300.000 
G2 X109.085 Y141.985 Z10.000 I0.360 J-8.015 F300.000 
G2 X106.576 Y157.730 Z10.000 I-0.360 J8.015 F300.000 
G1 X106.576 Y157.730 Z8.500 F300.000 
G2 X108.365 Y158.015 Z8.500 I2.149 J-7.730 F300.000 
G2 X109.085 Y141.985 Z8.500 I0.360 J-8.015 F300.000 
G2 X106.576 Y157.730 Z8.500 I-0.360 J8.015 F300.000 
G0 Z18.000 
G0 X106.579 Y157.723 Z18.000 
G0 X106.579 Y157.723 Z16.000 
G1 X106.579 Y157.723 Z8.500 F300.000 
G1 X100.991 Y152.135 Z8.500 F300.000 
G2 X106.579 Y157.723 Z8.500 I7.705 J-2.118 F300.000 
G2 X110.832 Y157.734 Z8.500 I2.146 J-7.499 F300.000 
G1 X100.986 Y147.887 Z8.500 F300.000 
G3 X102.407 Y145.066 Z8.500 I7.551 J2.037 F300.000 
G1 X113.662 Y156.321 Z8.500 F300.000 
G2 X115.643 Y154.059 Z8.500 I-4.814 J-6.216 F300.000 
G1 X104.670 Y143.086 Z8.500 F300.000 
G3 X107.857 Y142.030 Z8.500 I3.959 J6.616 F300.000 
G1 X116.696 Y150.869 Z8.500 F300.000 
G2 X114.270 Y144.201 Z8.500 I-7.943 J-0.886 F300.000 
G1 X114.270 Y144.201 Z7.000 F300.000 
G3 X116.696 Y150.869 Z7.000 I-5.517 J5.783 F300.000 
G1 X107.857 Y142.030 Z7.000 F300.000 
G2 X104.670 Y143.086 Z7.000 I0.772 J7.671 F300.000 
G1 X115.643 Y154.059 Z7.000 F300.000 
G3 X113.662 Y156.321 Z7.000 I-6.795 J-3.954 F300.000 
G1 X102.407 Y145.066 Z7.000 F300.000 
G2 X100.986 Y147.887 Z7.000 I6.129 J4.858 F300.000 
G1 X110.832 Y157.734 Z7.000 F300.000 
G3 X106.579 Y157.723 Z7.000 I-2.108 J-7.509 F300.000 
G3 X100.991 Y152.135 Z7.000 I2.118 J-7.705 F300.000 
G1 X106.579 Y157.723 Z7.000 F300.000 
G0 Z18.000 
G0 X106.576 Y157.730 Z18.000 
G0 X106.576 Y157.730 Z16.000 
G1 X106.576 Y157.730 Z7.000 F300.000 
G2 X108.365 Y158.015 Z7.000 I2.149 J-7.730 F300.000 
G2 X109.085 Y141.985 Z7.000 I0.360 J-8.015 F300.000 
G2 X106.576 Y157.730 Z7.000 I-0.360 J8.015 F300.000 
G1 X106.576 Y157.730 Z5.500 F300.000 
G2 X108.365 Y158.015 Z5.500 I2.149 J-7.730 F300.000 
G2 X109.085 Y141.985 Z5.500 I0.360 J-8.015 F300.000 
G2 X106.576 Y157.730 Z5.500 I-0.360 J8.015 F300.000 
G0 Z18.000 
G0 X106.579 Y157.723 Z18.000 
G0 X106.579 Y157.723 Z16.000 
G1 X106.579 Y157.723 Z5.500 F300.000 
G1 X100.991 Y152.135 Z5.500 F300.000 
G2 X106.579 Y157.723 Z5.500 I7.705 J-2.118 F300.000 
G2 X110.832 Y157.734 Z5.500 I2.146 J-7.499 F300.000 
G1 X100.986 Y147.887 Z5.500 F300.000 
G3 X102.407 Y145.066 Z5.500 I7.551 J2.037 F300.000 
G1 X113.662 Y156.321 Z5.500 F300.000 
G2 X115.643 Y154.059 Z5.500 I-4.814 J-6.216 F300.000 
G1 X104.670 Y143.086 Z5.500 F300.000 
G3 X107.857 Y142.030 Z5.500 I3.959 J6.616 F300.000 
G1 X116.696 Y150.869 Z5.500 F300.000 
G2 X114.270 Y144.201 Z5.500 I-7.943 J-0.886 F300.000 
G1 X114.270 Y144.201 Z4.000 F300.000 
G3 X116.696 Y150.869 Z4.000 I-5.517 J5.783 F300.000 
G1 X107.857 Y142.030 Z4.000 F300.000 
G2 X104.670 Y143.086 Z4.000 I0.772 J7.671 F300.000 
G1 X115.643 Y154.059 Z4.000 F300.000 
G3 X113.662 Y156.321 Z4.000 I-6.795 J-3.954 F300.000 
G1 X102.407 Y145.066 Z4.000 F300.000 
G2 X100.986 Y147.887 Z4.000 I6.129 J4.858 F300.000 
G1 X110.832 Y157.734 Z4.000 F300.000 
G3 X106.579 Y157.723 Z4.000 I-2.108 J-7.509 F300.000 
G3 X100.991 Y152.135 Z4.000 I2.118 J-7.705 F300.000 
G1 X106.579 Y157.723 Z4.000 F300.000 
G0 Z18.000 
G0 X106.576 Y157.730 Z18.000 
G0 X106.576 Y157.730 Z16.000 
G1 X106.576 Y157.730 Z4.000 F300.000 
G2 X108.365 Y158.015 Z4.000 I2.149 J-7.730 F300.000 
G2 X109.085 Y141.985 Z4.000 I0.360 J-8.015 F300.000 
G2 X106.576 Y157.730 Z4.000 I-0.360 J8.015 F300.000 
G1 X106.576 Y157.730 Z2.500 F300.000 
G2 X108.365 Y158.015 Z2.500 I2.149 J-7.730 F300.000 
G2 X109.085 Y141.985 Z2.500 I0.360 J-8.015 F300.000 
G2 X106.576 Y157.730 Z2.500 I-0.360 J8.015 F300.000 
G0 Z18.000 
G0 X106.579 Y157.723 Z18.000 
G0 X106.579 Y157.723 Z16.000 
G1 X106.579 Y157.723 Z2.500 F300.000 
G1 X100.991 Y152.135 Z2.500 F300.000 
G2 X106.579 Y157.723 Z2.500 I7.705 J-2.118 F300.000 
G2 X110.832 Y157.734 Z2.500 I2.146 J-7.499 F300.000 
G1 X100.986 Y147.887 Z2.500 F300.000 
G3 X102.407 Y145.066 Z2.500 I7.551 J2.037 F300.000 
G1 X113.662 Y156.321 Z2.500 F300.000 
G2 X115.643 Y154.059 Z2.500 I-4.814 J-6.216 F300.000 
G1 X104.670 Y143.086 Z2.500 F300.000 
G3 X107.857 Y142.030 Z2.500 I3.959 J6.616 F300.000 
G1 X116.696 Y150.869 Z2.500 F300.000 
G2 X114.270 Y144.201 Z2.500 I-7.943 J-0.886 F300.000 
G1 X114.270 Y144.201 Z1.000 F300.000 
G3 X116.696 Y150.869 Z1.000 I-5.517 J5.783 F300.000 
G1 X107.857 Y142.030 Z1.000 F300.000 
G2 X104.670 Y143.086 Z1.000 I0.772 J7.671 F300.000 
G1 X115.643 Y154.059 Z1.000 F300.000 
G3 X113.662 Y156.321 Z1.000 I-6.795 J-3.954 F300.000 
G1 X102.407 Y145.066 Z1.000 F300.000 
G2 X100.986 Y147.887 Z1.000 I6.129 J4.858 F300.000 
G1 X110.832 Y157.734 Z1.000 F300.000 
G3 X106.579 Y157.723 Z1.000 I-2.108 J-7.509 F300.000 
G3 X100.991 Y152.135 Z1.000 I2.118 J-7.705 F300.000 
G1 X106.579 Y157.723 Z1.000 F300.000 
G0 Z18.000 
G0 X106.576 Y157.730 Z18.000 
G0 X106.576 Y157.730 Z16.000 
G1 X106.576 Y157.730 Z1.000 F300.000 
G2 X108.365 Y158.015 Z1.000 I2.149 J-7.730 F300.000 
G2 X109.085 Y141.985 Z1.000 I0.360 J-8.015 F300.000 
G2 X106.576 Y157.730 Z1.000 I-0.360 J8.015 F300.000 
G1 X106.576 Y157.730 Z0.000 F300.000 
G2 X108.365 Y158.015 Z0.000 I2.149 J-7.730 F300.000 
G2 X109.085 Y141.985 Z0.000 I0.360 J-8.015 F300.000 
G2 X106.576 Y157.730 Z0.000 I-0.360 J8.015 F300.000 
G0 Z18.000 
G0 X106.579 Y157.723 Z18.000 
G0 X106.579 Y157.723 Z16.000 
G1 X106.579 Y157.723 Z0.000 F300.000 
G1 X100.991 Y152.135 Z0.000 F300.000 
G2 X106.579 Y157.723 Z0.000 I7.705 J-2.118 F300.000 
G2 X110.832 Y157.734 Z0.000 I2.146 J-7.499 F300.000 
G1 X100.986 Y147.887 Z0.000 F300.000 
G3 X102.407 Y145.066 Z0.000 I7.551 J2.037 F300.000 
G1 X113.662 Y156.321 Z0.000 F300.000 
G2 X115.643 Y154.059 Z0.000 I-4.814 J-6.216 F300.000 
G1 X104.670 Y143.086 Z0.000 F300.000 
G3 X107.857 Y142.030 Z0.000 I3.959 J6.616 F300.000 
G1 X116.696 Y150.869 Z0.000 F300.000 
G2 X114.270 Y144.201 Z0.000 I-7.943 J-0.886 F300.000 
G0 Z18.000 
G0 Z18.000 
G0 X114.270 Y144.201 
G0 X134.245 Y147.443 
G0 X134.245 Y147.443 Z16.000 
G1 X134.245 Y147.443 Z11.500 F300.000 
G2 X149.467 Y165.953 Z11.500 I15.755 J2.557 F300.000 
G2 X150.533 Y134.047 Z11.500 I0.533 J-15.953 F300.000 
G2 X134.245 Y147.443 Z11.500 I-0.533 J15.953 F300.000 
G0 Z18.000 
G0 X134.716 Y154.572 Z18.000 
G0 X134.716 Y154.572 Z16.000 
G1 X134.716 Y154.572 Z11.500 F300.000 
G2 X145.433 Y165.289 Z11.500 I15.250 J-4.532 F300.000 
G1 X134.716 Y154.572 Z11.500 F300.000 
G3 X134.050 Y149.663 Z11.500 I14.664 J-4.489 F300.000 
G1 X150.339 Y165.953 Z11.500 F300.000 
G2 X154.058 Y165.429 Z11.500 I-0.218 J-15.012 F300.000 
G1 X134.568 Y145.939 Z11.500 F300.000 
G3 X135.728 Y142.857 Z11.500 I14.793 J3.807 F300.000 
G1 X157.138 Y164.267 Z11.500 F300.000 
G2 X159.745 Y162.631 Z11.500 I-6.278 J-12.904 F300.000 
G1 X137.367 Y140.252 Z11.500 F300.000 
G3 X139.418 Y138.061 Z11.500 I11.645 J8.845 F300.000 
G1 X161.941 Y160.585 Z11.500 F300.000 
G2 X163.734 Y158.134 Z11.500 I-11.622 J-10.380 F300.000 
G1 X141.872 Y136.273 Z11.500 F300.000 
G3 X144.771 Y134.929 Z11.500 I7.456 J12.279 F300.000 
G1 X165.078 Y155.236 Z11.500 F300.000 
G2 X165.855 Y151.770 Z11.500 I-14.651 J-5.104 F300.000 
G1 X148.227 Y134.142 Z11.500 F300.000 
G3 X152.578 Y134.250 Z11.500 I1.796 J15.323 F300.000 
G1 X165.742 Y147.415 Z11.500 F300.000 
G2 X161.096 Y138.526 Z11.500 I-15.669 J2.531 F300.000 
G1 X161.096 Y138.526 Z10.000 F300.000 
G3 X165.742 Y147.415 Z10.000 I-11.023 J11.419 F300.000 
G1 X152.578 Y134.250 Z10.000 F300.000 
G2 X148.227 Y134.142 Z10.000 I-2.555 J15.214 F300.000 
G1 X165.855 Y151.770 Z10.000 F300.000 
G3 X165.078 Y155.236 Z10.000 I-15.428 J-1.638 F300.000 
G1 X144.771 Y134.929 Z10.000 F300.000 
G2 X141.872 Y136.273 Z10.000 I4.558 J13.623 F300.000 
G1 X163.734 Y158.134 Z10.000 F300.000 
G3 X161.941 Y160.585 Z10.000 I-13.414 J-7.930 F300.000 
G1 X139.418 Y138.061 Z10.000 F300.000 
G2 X137.367 Y140.252 Z10.000 I9.594 J11.037 F300.000 
G1 X159.745 Y162.631 Z10.000 F300.000 
G3 X157.138 Y164.267 Z10.000 I-8.885 J-11.268 F300.000 
G1 X135.728 Y142.857 Z10.000 F300.000 
G2 X134.568 Y145.939 Z10.000 I13.633 J6.889 F300.000 
G1 X154.058 Y165.429 Z10.000 F300.000 
G3 X150.339 Y165.953 Z10.000 I-3.937 J-14.488 F300.000 
G1 X134.050 Y149.663 Z10.000 F300.000 
G2 X134.716 Y154.572 Z10.000 I15.330 J0.420 F300.000 
G1 X145.433 Y165.289 Z10.000 F300.000 
G3 X134.716 Y154.572 Z10.000 I4.532 J-15.250 F300.000 
G0 Z18.000 
G0 X134.708 Y154.574 Z18.000 
G0 X134.708 Y154.574 Z16.000 
G1 X134.708 Y154.574 Z10.000 F300.000 
G2 X149.467 Y165.953 Z10.000 I15.292 J-4.574 F300.000 
G2 X150.533 Y134.047 Z10.000 I0.533 J-15.953 F300.000 
G2 X134.708 Y154.574 Z10.000 I-0.533 J15.953 F300.000 
G1 X134.708 Y154.574 Z8.500 F300.000 
G2 X149.467 Y165.953 Z8.500 I15.292 J-4.574 F300.000 
G2 X150.533 Y134.047 Z8.500 I0.533 J-15.953 F300.000 
G2 X134.708 Y154.574 Z8.500 I-0.533 J15.953 F300.000 
G0 Z18.000 
G0 X134.716 Y154.572 Z18.000 
G0 X134.716 Y154.572 Z16.000 
G1 X134.716 Y154.572 Z8.500 F300.000 
G2 X145.433 Y165.289 Z8.500 I15.250 J-4.532 F300.000 
G1 X134.716 Y154.572 Z8.500 F300.000 
G3 X134.050 Y149.663 Z8.500 I14.664 J-4.489 F300.000 
G1 X150.339 Y165.953 Z8.500 F300.000 
G2 X154.058 Y165.429 Z8.500 I-0.218 J-15.012 F300.000 
G1 X134.568 Y145.939 Z8.500 F300.000 
G3 X135.728 Y142.857 Z8.500 I14.793 J3.807 F300.000 
G1 X157.138 Y164.267 Z8.500 F300.000 
G2 X159.745 Y162.631 Z8.500 I-6.278 J-12.904 F300.000 
G1 X137.367 Y140.252 Z8.500 F300.000 
G3 X139.418 Y138.061 Z8.500 I11.645 J8.845 F300.000 
G1 X161.941 Y160.585 Z8.500 F300.000 
G2 X163.734 Y158.134 Z8.500 I-11.622 J-10.380 F300.000 
G1 X141.872 Y136.273 Z8.500 F300.000 
G3 X144.771 Y134.929 Z8.500 I7.456 J12.279 F300.000 
G1 X165.078 Y155.236 Z8.500 F300.000 
G2 X165.855 Y151.770 Z8.500 I-14.651 J-5.104 F300.000 
G1 X148.227 Y134.142 Z8.500 F300.000 
G3 X152.578 Y134.250 Z8.500 I1.796 J15.323 F300.000 
G1 X165.742 Y147.415 Z8.500 F300.000 
G2 X161.096 Y138.526 Z8.500 I-15.669 J2.531 F300.000 
G1 X161.096 Y138.526 Z7.000 F300.000 
G3 X165.742 Y147.415 Z7.000 I-11.023 J11.419 F300.000 
G1 X152.578 Y134.250 Z7.000 F300.000 
G2 X148.227 Y134.142 Z7.000 I-2.555 J15.214 F300.000 
G1 X165.855 Y151.770 Z7.000 F300.000 
G3 X165.078 Y155.236 Z7.000 I-15.428 J-1.638 F300.000 
G1 X144.771 Y134.929 Z7.000 F300.000 
G2 X141.872 Y136.273 Z7.000 I4.558 J13.623 F300.000 
G1 X163.734 Y158.134 Z7.000 F300.000 
G3 X161.941 Y160.585 Z7.000 I-13.414 J-7.930 F300.000 
G1 X139.418 Y138.061 Z7.000 F300.000 
G2 X137.367 Y140.252 Z7.000 I9.594 J11.037 F300.000 
G1 X159.745 Y162.631 Z7.000 F300.000 
G3 X157.138 Y164.267 Z7.000 I-8.885 J-11.268 F300.000 
G1 X135.728 Y142.857 Z7.000 F300.000 
G2 X134.568 Y145.939 Z7.000 I13.633 J6.889 F300.000 
G1 X154.058 Y165.429 Z7.000 F300.000 
G3 X150.339 Y165.953 Z7.000 I-3.937 J-14.488 F300.000 
G1 X134.050 Y149.663 Z7.000 F300.000 
G2 X134.716 Y154.572 Z7.000 I15.330 J0.420 F300.000 
G1 X145.433 Y165.289 Z7.000 F300.000 
G3 X134.716 Y154.572 Z7.000 I4.532 J-15.250 F300.000 
G0 Z18.000 
G0 X134.708 Y154.574 Z18.000 
G0 X134.708 Y154.574 Z16.000 
G1 X134.708 Y154.574 Z7.000 F300.000 
G2 X149.467 Y165.953 Z7.000 I15.292 J-4.574 F300.000 
G2 X150.533 Y134.047 Z7.000 I0.533 J-15.953 F300.000 
G2 X134.708 Y154.574 Z7.000 I-0.533 J15.953 F300.000 
G1 X134.708 Y154.574 Z5.500 F300.000 
G2 X149.467 Y165.953 Z5.500 I15.292 J-4.574 F300.000 
G2 X150.533 Y134.047 Z5.500 I0.533 J-15.953 F300.000 
G2 X134.708 Y154.574 Z5.500 I-0.533 J15.953 F300.000 
G0 Z18.000 
G0 X134.716 Y154.572 Z18.000 
G0 X134.716 Y154.572 Z16.000 
G1 X134.716 Y154.572 Z5.500 F300.000 
G2 X145.433 Y165.289 Z5.500 I15.250 J-4.532 F300.000 
G1 X134.716 Y154.572 Z5.500 F300.000 
G3 X134.050 Y149.663 Z5.500 I14.664 J-4.489 F300.000 
G1 X150.339 Y165.953 Z5.500 F300.000 
G2 X154.058 Y165.429 Z5.500 I-0.218 J-15.012 F300.000 
G1 X134.568 Y145.939 Z5.500 F300.000 
G3 X135.728 Y142.857 Z5.500 I14.793 J3.807 F300.000 
G1 X157.138 Y164.267 Z5.500 F300.000 
G2 X159.745 Y162.631 Z5.500 I-6.278 J-12.904 F300.000 
G1 X137.367 Y140.252 Z5.500 F300.000 
G3 X139.418 Y138.061 Z5.500 I11.645 J8.845 F300.000 
G1 X161.941 Y160.585 Z5.500 F300.000 
G2 X163.734 Y158.134 Z5.500 I-11.622 J-10.380 F300.000 
G1 X141.872 Y136.273 Z5.500 F300.000 
G3 X144.771 Y134.929 Z5.500 I7.456 J12.279 F300.000 
G1 X165.078 Y155.236 Z5.500 F300.000 
G2 X165.855 Y151.770 Z5.500 I-14.651 J-5.104 F300.000 
G1 X148.227 Y134.142 Z5.500 F300.000 
G3 X152.578 Y134.250 Z5.500 I1.796 J15.323 F300.000 
G1 X165.742 Y147.415 Z5.500 F300.000 
G2 X161.096 Y138.526 Z5.500 I-15.669 J2.531 F300.000 
G1 X161.096 Y138.526 Z4.000 F300.000 
G3 X165.742 Y147.415 Z4.000 I-11.023 J11.419 F300.000 
G1 X152.578 Y134.250 Z4.000 F300.000 
G2 X148.227 Y134.142 Z4.000 I-2.555 J15.214 F300.000 
G1 X165.855 Y151.770 Z4.000 F300.000 
G3 X165.078 Y155.236 Z4.000 I-15.428 J-1.638 F300.000 
G1 X144.771 Y134.929 Z4.000 F300.000 
G2 X141.872 Y136.273 Z4.000 I4.558 J13.623 F300.000 
G1 X163.734 Y158.134 Z4.000 F300.000 
G3 X161.941 Y160.585 Z4.000 I-13.414 J-7.930 F300.000 
G1 X139.418 Y138.061 Z4.000 F300.000 
G2 X137.367 Y140.252 Z4.000 I9.594 J11.037 F300.000 
G1 X159.745 Y162.631 Z4.000 F300.000 
G3 X157.138 Y164.267 Z4.000 I-8.885 J-11.268 F300.000 
G1 X135.728 Y142.857 Z4.000 F300.000 
G2 X134.568 Y145.939 Z4.000 I13.633 J6.889 F300.000 
G1 X154.058 Y165.429 Z4.000 F300.000 
G3 X150.339 Y165.953 Z4.000 I-3.937 J-14.488 F300.000 
G1 X134.050 Y149.663 Z4.000 F300.000 
G2 X134.716 Y154.572 Z4.000 I15.330 J0.420 F300.000 
G1 X145.433 Y165.289 Z4.000 F300.000 
G3 X134.716 Y154.572 Z4.000 I4.532 J-15.250 F300.000 
G0 Z18.000 
G0 X134.708 Y154.574 Z18.000 
G0 X134.708 Y154.574 Z16.000 
G1 X134.708 Y154.574 Z4.000 F300.000 
G2 X149.467 Y165.953 Z4.000 I15.292 J-4.574 F300.000 
G2 X150.533 Y134.047 Z4.000 I0.533 J-15.953 F300.000 
G2 X134.708 Y154.574 Z4.000 I-0.533 J15.953 F300.000 
G1 X134.708 Y154.574 Z2.500 F300.000 
G2 X149.467 Y165.953 Z2.500 I15.292 J-4.574 F300.000 
G2 X150.533 Y134.047 Z2.500 I0.533 J-15.953 F300.000 
G2 X134.708 Y154.574 Z2.500 I-0.533 J15.953 F300.000 
G0 Z18.000 
G0 X134.716 Y154.572 Z18.000 
G0 X134.716 Y154.572 Z16.000 
G1 X134.716 Y154.572 Z2.500 F300.000 
G2 X145.433 Y165.289 Z2.500 I15.250 J-4.532 F300.000 
G1 X134.716 Y154.572 Z2.500 F300.000 
G3 X134.050 Y149.663 Z2.500 I14.664 J-4.489 F300.000 
G1 X150.339 Y165.953 Z2.500 F300.000 
G2 X154.058 Y165.429 Z2.500 I-0.218 J-15.012 F300.000 
G1 X134.568 Y145.939 Z2.500 F300.000 
G3 X135.728 Y142.857 Z2.500 I14.793 J3.807 F300.000 
G1 X157.138 Y164.267 Z2.500 F300.000 
G2 X159.745 Y162.631 Z2.500 I-6.278 J-12.904 F300.000 
G1 X137.367 Y140.252 Z2.500 F300.000 
G3 X139.418 Y138.061 Z2.500 I11.645 J8.845 F300.000 
G1 X161.941 Y160.585 Z2.500 F300.000 
G2 X163.734 Y158.134 Z2.500 I-11.622 J-10.380 F300.000 
G1 X141.872 Y136.273 Z2.500 F300.000 
G3 X144.771 Y134.929 Z2.500 I7.456 J12.279 F300.000 
G1 X165.078 Y155.236 Z2.500 F300.000 
G2 X165.855 Y151.770 Z2.500 I-14.651 J-5.104 F300.000 
G1 X148.227 Y134.142 Z2.500 F300.000 
G3 X152.578 Y134.250 Z2.500 I1.796 J15.323 F300.000 
G1 X165.742 Y147.415 Z2.500 F300.000 
G2 X161.096 Y138.526 Z2.500 I-15.669 J2.531 F300.000 
G1 X161.096 Y138.526 Z1.000 F300.000 
G3 X165.742 Y147.415 Z1.000 I-11.023 J11.419 F300.000 
G1 X152.578 Y134.250 Z1.000 F300.000 
G2 X148.227 Y134.142 Z1.000 I-2.555 J15.214 F300.000 
G1 X165.855 Y151.770 Z1.000 F300.000 
G3 X165.078 Y155.236 Z1.000 I-15.428 J-1.638 F300.000 
G1 X144.771 Y134.929 Z1.000 F300.000 
G2 X141.872 Y136.273 Z1.000 I4.558 J13.623 F300.000 
G1 X163.734 Y158.134 Z1.000 F300.000 
G3 X161.941 Y160.585 Z1.000 I-13.414 J-7.930 F300.000 
G1 X139.418 Y138.061 Z1.000 F300.000 
G2 X137.367 Y140.252 Z1.000 I9.594 J11.037 F300.000 
G1 X159.745 Y162.631 Z1.000 F300.000 
G3 X157.138 Y164.267 Z1.000 I-8.885 J-11.268 F300.000 
G1 X135.728 Y142.857 Z1.000 F300.000 
G2 X134.568 Y145.939 Z1.000 I13.633 J6.889 F300.000 
G1 X154.058 Y165.429 Z1.000 F300.000 
G3 X150.339 Y165.953 Z1.000 I-3.937 J-14.488 F300.000 
G1 X134.050 Y149.663 Z1.000 F300.000 
G2 X134.716 Y154.572 Z1.000 I15.330 J0.420 F300.000 
G1 X145.433 Y165.289 Z1.000 F300.000 
G3 X134.716 Y154.572 Z1.000 I4.532 J-15.250 F300.000 
G0 Z18.000 
G0 X134.708 Y154.574 Z18.000 
G0 X134.708 Y154.574 Z16.000 
G1 X134.708 Y154.574 Z1.000 F300.000 
G2 X149.467 Y165.953 Z1.000 I15.292 J-4.574 F300.000 
G2 X150.533 Y134.047 Z1.000 I0.533 J-15.953 F300.000 
G2 X134.708 Y154.574 Z1.000 I-0.533 J15.953 F300.000 
G1 X134.708 Y154.574 Z0.000 F300.000 
G2 X149.467 Y165.953 Z0.000 I15.292 J-4.574 F300.000 
G2 X150.533 Y134.047 Z0.000 I0.533 J-15.953 F300.000 
G2 X134.708 Y154.574 Z0.000 I-0.533 J15.953 F300.000 
G0 Z18.000 
G0 X134.716 Y154.572 Z18.000 
G0 X134.716 Y154.572 Z16.000 
G1 X134.716 Y154.572 Z0.000 F300.000 
G2 X145.433 Y165.289 Z0.000 I15.250 J-4.532 F300.000 
G1 X134.716 Y154.572 Z0.000 F300.000 
G3 X134.050 Y149.663 Z0.000 I14.664 J-4.489 F300.000 
G1 X150.339 Y165.953 Z0.000 F300.000 
G2 X154.058 Y165.429 Z0.000 I-0.218 J-15.012 F300.000 
G1 X134.568 Y145.939 Z0.000 F300.000 
G3 X135.728 Y142.857 Z0.000 I14.793 J3.807 F300.000 
G1 X157.138 Y164.267 Z0.000 F300.000 
G2 X159.745 Y162.631 Z0.000 I-6.278 J-12.904 F300.000 
G1 X137.367 Y140.252 Z0.000 F300.000 
G3 X139.418 Y138.061 Z0.000 I11.645 J8.845 F300.000 
G1 X161.941 Y160.585 Z0.000 F300.000 
G2 X163.734 Y158.134 Z0.000 I-11.622 J-10.380 F300.000 
G1 X141.872 Y136.273 Z0.000 F300.000 
G3 X144.771 Y134.929 Z0.000 I7.456 J12.279 F300.000 
G1 X165.078 Y155.236 Z0.000 F300.000 
G2 X165.855 Y151.770 Z0.000 I-14.651 J-5.104 F300.000 
G1 X148.227 Y134.142 Z0.000 F300.000 
G3 X152.578 Y134.250 Z0.000 I1.796 J15.323 F300.000 
G1 X165.742 Y147.415 Z0.000 F300.000 
G2 X161.096 Y138.526 Z0.000 I-15.669 J2.531 F300.000 
G0 Z18.000 
G0 Z18.000 
G0 X161.096 Y138.526 
G0 X151.652 Y183.423 
G0 X151.652 Y183.423 Z16.000 
G1 X151.652 Y183.423 Z11.500 F300.000 
G2 X150.360 Y183.260 Z11.500 I-1.652 J7.852 F300.000 
G2 X149.640 Y199.290 Z11.500 I-0.360 J8.015 F300.000 
G2 X151.652 Y183.423 Z11.500 I0.360 J-8.015 F300.000 
G0 Z18.000 
G0 X155.545 Y185.476 Z18.000 
G0 X155.545 Y185.476 Z16.000 
G1 X155.545 Y185.476 Z11.500 F300.000 
G3 X157.971 Y192.144 Z11.500 I-5.517 J5.783 F300.000 
G1 X149.132 Y183.305 Z11.500 F300.000 
G2 X145.945 Y184.361 Z11.500 I0.772 J7.671 F300.000 
G1 X156.918 Y195.334 Z11.500 F300.000 
G3 X154.937 Y197.596 Z11.500 I-6.795 J-3.954 F300.000 
G1 X143.682 Y186.341 Z11.500 F300.000 
G2 X142.261 Y189.162 Z11.500 I6.129 J4.858 F300.000 
G1 X152.107 Y199.009 Z11.500 F300.000 
G3 X147.854 Y198.998 Z11.500 I-2.108 J-7.509 F300.000 
G3 X142.266 Y193.410 Z11.500 I2.118 J-7.705 F300.000 
G1 X147.854 Y198.998 Z11.500 F300.000 
G1 X147.854 Y198.998 Z10.000 F300.000 
G1 X142.266 Y193.410 Z10.000 F300.000 
G2 X147.854 Y198.998 Z10.000 I7.705 J-2.118 F300.000 
G2 X152.107 Y199.009 Z10.000 I2.146 J-7.499 F300.000 
G1 X142.261 Y189.162 Z10.000 F300.000 
G3 X143.682 Y186.341 Z10.000 I7.551 J2.037 F300.000 
G1 X154.937 Y197.596 Z10.000 F300.000 
G2 X156.918 Y195.334 Z10.000 I-4.814 J-6.216 F300.000 
G1 X145.945 Y184.361 Z10.000 F300.000 
G3 X149.132 Y183.305 Z10.000 I3.959 J6.616 F300.000 
G1 X157.971 Y192.144 Z10.000 F300.000 
G2 X155.545 Y185.476 Z10.000 I-7.943 J-0.886 F300.000 
G1 X155.545 Y185.476 Z10.000 F300.000 
G2 X150.360 Y183.260 Z10.000 I-5.545 J5.799 F300.000 
G2 X149.640 Y199.290 Z10.000 I-0.360 J8.015 F300.000 
G2 X155.545 Y185.476 Z10.000 I0.360 J-8.015 F300.000 
G1 X155.545 Y185.476 Z8.500 F300.000 
G2 X150.360 Y183.260 Z8.500 I-5.545 J5.799 F300.000 
G2 X149.640 Y199.290 Z8.500 I-0.360 J8.015 F300.000 
G2 X155.545 Y185.476 Z8.500 I0.360 J-8.015 F300.000 
G1 X155.545 Y185.476 Z8.500 F300.000 
G3 X157.971 Y192.144 Z8.500 I-5.517 J5.783 F300.000 
G1 X149.132 Y183.305 Z8.500 F300.000 
G2 X145.945 Y184.361 Z8.500 I0.772 J7.671 F300.000 
G1 X156.918 Y195.334 Z8.500 F300.000 
G3 X154.937 Y197.596 Z8.500 I-6.795 J-3.954 F300.000 
G1 X143.682 Y186.341 Z8.500 F300.000 
G2 X142.261 Y189.162 Z8.500 I6.129 J4.858 F300.000 
G1 X152.107 Y199.009 Z8.500 F300.000 
G3 X147.854 Y198.998 Z8.500 I-2.108 J-7.509 F300.000 
G3 X142.266 Y193.410 Z8.500 I2.118 J-7.705 F300.000 
G1 X147.854 Y198.998 Z8.500 F300.000 
G1 X147.854 Y198.998 Z7.000 F300.000 
G1 X142.266 Y193.410 Z7.000 F300.000 
G2 X147.854 Y198.998 Z7.000 I7.705 J-2.118 F300.000 
G2 X152.107 Y199.009 Z7.000 I2.146 J-7.499 F300.000 
G1 X142.261 Y189.162 Z7.000 F300.000 
G3 X143.682 Y186.341 Z7.000 I7.551 J2.037 F300.000 
G1 X154.937 Y197.596 Z7.000 F300.000 
G2 X156.918 Y195.334 Z7.000 I-4.814 J-6.216 F300.000 
G1 X145.945 Y184.361 Z7.000 F300.000 
G3 X149.132 Y183.305 Z7.000 I3.959 J6.616 F300.000 
G1 X157.971 Y192.144 Z7.000 F300.000 
G2 X155.545 Y185.476 Z7.000 I-7.943 J-0.886 F300.000 
G1 X155.545 Y185.476 Z7.000 F300.000 
G2 X150.360 Y183.260 Z7.000 I-5.545 J5.799 F300.000 
G2 X149.640 Y199.290 Z7.000 I-0.360 J8.015 F300.000 
G2 X155.545 Y185.476 Z7.000 I0.360 J-8.015 F300.000 
G1 X155.545 Y185.476 Z5.500 F300.000 
G2 X150.360 Y183.260 Z5.500 I-5.545 J5.799 F300.000 
G2 X149.640 Y199.290 Z5.500 I-0.360 J8.015 F300.000 
G2 X155.545 Y185.476 Z5.500 I0.360 J-8.015 F300.000 
G1 X155.545 Y185.476 Z5.500 F300.000 
G3 X157.971 Y192.144 Z5.500 I-5.517 J5.783 F300.000 
G1 X149.132 Y183.305 Z5.500 F300.000 
G2 X145.945 Y184.361 Z5.500 I0.772 J7.671 F300.000 
G1 X156.918 Y195.334 Z5.500 F300.000 
G3 X154.937 Y197.596 Z5.500 I-6.795 J-3.954 F300.000 
G1 X143.682 Y186.341 Z5.500 F300.000 
G2 X142.261 Y189.162 Z5.500 I6.129 J4.858 F300.000 
G1 X152.107 Y199.009 Z5.500 F300.000 
G3 X147.854 Y198.998 Z5.500 I-2.108 J-7.509 F300.000 
G3 X142.266 Y193.410 Z5.500 I2.118 J-7.705 F300.000 
G1 X147.854 Y198.998 Z5.500 F300.000 
G1 X147.854 Y198.998 Z4.000 F300.000 
G1 X142.266 Y193.410 Z4.000 F300.000 
G2 X147.854 Y198.998 Z4.000 I7.705 J-2.118 F300.000 
G2 X152.107 Y199.009 Z4.000 I2.146 J-7.499 F300.000 
G1 X142.261 Y189.162 Z4.000 F300.000 
G3 X143.682 Y186.341 Z4.000 I7.551 J2.037 F300.000 
G1 X154.937 Y197.596 Z4.000 F300.000 
G2 X156.918 Y195.334 Z4.000 I-4.814 J-6.216 F300.000 
G1 X145.945 Y184.361 Z4.000 F300.000 
G3 X149.132 Y183.305 Z4.000 I3.959 J6.616 F300.000 
G1 X157.971 Y192.144 Z4.000 F300.000 
G2 X155.545 Y185.476 Z4.000 I-7.943 J-0.886 F300.000 
G1 X155.545 Y185.476 Z4.000 F300.000 
G2 X150.360 Y183.260 Z4.000 I-5.545 J5.799 F300.000 
G2 X149.640 Y199.290 Z4.000 I-0.360 J8.015 F300.000 
G2 X155.545 Y185.476 Z4.000 I0.360 J-8.015 F300.000 
G1 X155.545 Y185.476 Z2.500 F300.000 
G2 X150.360 Y183.260 Z2.500 I-5.545 J5.799 F300.000 
G2 X149.640 Y199.290 Z2.500 I-0.360 J8.015 F300.000 
G2 X155.545 Y185.476 Z2.500 I0.360 J-8.015 F300.000 
G1 X155.545 Y185.476 Z2.500 F300.000 
G3 X157.971 Y192.144 Z2.500 I-5.517 J5.783 F300.000 
G1 X149.132 Y183.305 Z2.500 F300.000 
G2 X145.945 Y184.361 Z2.500 I0.772 J7.671 F300.000 
G1 X156.918 Y195.334 Z2.500 F300.000 
G3 X154.937 Y197.596 Z2.500 I-6.795 J-3.954 F300.000 
G1 X143.682 Y186.341 Z2.500 F300.000 
G2 X142.261 Y189.162 Z2.500 I6.129 J4.858 F300.000 
G1 X152.107 Y199.009 Z2.500 F300.000 
G3 X147.854 Y198.998 Z2.500 I-2.108 J-7.509 F300.000 
G3 X142.266 Y193.410 Z2.500 I2.118 J-7.705 F300.000 
G1 X147.854 Y198.998 Z2.500 F300.000 
G1 X147.854 Y198.998 Z1.000 F300.000 
G1 X142.266 Y193.410 Z1.000 F300.000 
G2 X147.854 Y198.998 Z1.000 I7.705 J-2.118 F300.000 
G2 X152.107 Y199.009 Z1.000 I2.146 J-7.499 F300.000 
G1 X142.261 Y189.162 Z1.000 F300.000 
G3 X143.682 Y186.341 Z1.000 I7.551 J2.037 F300.000 
G1 X154.937 Y197.596 Z1.000 F300.000 
G2 X156.918 Y195.334 Z1.000 I-4.814 J-6.216 F300.000 
G1 X145.945 Y184.361 Z1.000 F300.000 
G3 X149.132 Y183.305 Z1.000 I3.959 J6.616 F300.000 
G1 X157.971 Y192.144 Z1.000 F300.000 
G2 X155.545 Y185.476 Z1.000 I-7.943 J-0.886 F300.000 
G1 X155.545 Y185.476 Z1.000 F300.000 
G2 X150.360 Y183.260 Z1.000 I-5.545 J5.799 F300.000 
G2 X149.640 Y199.290 Z1.000 I-0.360 J8.015 F300.000 
G2 X155.545 Y185.476 Z1.000 I0.360 J-8.015 F300.000 
G1 X155.545 Y185.476 Z0.000 F300.000 
G2 X150.360 Y183.260 Z0.000 I-5.545 J5.799 F300.000 
G2 X149.640 Y199.290 Z0.000 I-0.360 J8.015 F300.000 
G2 X155.545 Y185.476 Z0.000 I0.360 J-8.015 F300.000 
G1 X155.545 Y185.476 Z0.000 F300.000 
G3 X157.971 Y192.144 Z0.000 I-5.517 J5.783 F300.000 
G1 X149.132 Y183.305 Z0.000 F300.000 
G2 X145.945 Y184.361 Z0.000 I0.772 J7.671 F300.000 
G1 X156.918 Y195.334 Z0.000 F300.000 
G3 X154.937 Y197.596 Z0.000 I-6.795 J-3.954 F300.000 
G1 X143.682 Y186.341 Z0.000 F300.000 
G2 X142.261 Y189.162 Z0.000 I6.129 J4.858 F300.000 
G1 X152.107 Y199.009 Z0.000 F300.000 
G3 X147.854 Y198.998 Z0.000 I-2.108 J-7.509 F300.000 
G3 X142.266 Y193.410 Z0.000 I2.118 J-7.705 F300.000 
G1 X147.854 Y198.998 Z0.000 F300.000 
G0 Z18.000 
G0 Z18.000 
G0 X147.854 Y198.998 
G0 X185.954 Y156.005 
G0 X185.954 Y156.005 Z16.000 
G1 X185.954 Y156.005 Z11.500 F300.000 
G2 X190.915 Y158.015 Z11.500 I5.321 J-6.005 F300.000 
G2 X191.635 Y141.985 Z11.500 I0.360 J-8.015 F300.000 
G2 X185.954 Y156.005 Z11.500 I-0.360 J8.015 F300.000 
G0 Z18.000 
G0 X189.129 Y157.723 Z18.000 
G0 X189.129 Y157.723 Z16.000 
G1 X189.129 Y157.723 Z11.500 F300.000 
G1 X183.541 Y152.135 Z11.500 F300.000 
G2 X189.129 Y157.723 Z11.500 I7.705 J-2.118 F300.000 
G2 X193.382 Y157.734 Z11.500 I2.146 J-7.499 F300.000 
G1 X183.536 Y147.887 Z11.500 F300.000 
G3 X184.957 Y145.066 Z11.500 I7.551 J2.037 F300.000 
G1 X196.212 Y156.321 Z11.500 F300.000 
G2 X198.193 Y154.059 Z11.500 I-4.814 J-6.216 F300.000 
G1 X187.220 Y143.086 Z11.500 F300.000 
G3 X190.407 Y142.030 Z11.500 I3.959 J6.616 F300.000 
G1 X199.246 Y150.869 Z11.500 F300.000 
G2 X196.820 Y144.201 Z11.500 I-7.943 J-0.886 F300.000 
G1 X196.820 Y144.201 Z10.000 F300.000 
G3 X199.246 Y150.869 Z10.000 I-5.517 J5.783 F300.000 
G1 X190.407 Y142.030 Z10.000 F300.000 
G2 X187.220 Y143.086 Z10.000 I0.772 J7.671 F300.000 
G1 X198.193 Y154.059 Z10.000 F300.000 
G3 X196.212 Y156.321 Z10.000 I-6.795 J-3.954 F300.000 
G1 X184.957 Y145.066 Z10.000 F300.000 
G2 X183.536 Y147.887 Z10.000 I6.129 J4.858 F300.000 
G1 X193.382 Y157.734 Z10.000 F300.000 
G3 X189.129 Y157.723 Z10.000 I-2.108 J-7.509 F300.000 
G3 X183.541 Y152.135 Z10.000 I2.118 J-7.705 F300.000 
G1 X189.129 Y157.723 Z10.000 F300.000 
G0 Z18.000 
G0 X189.126 Y157.730 Z18.000 
G0 X189.126 Y157.730 Z16.000 
G1 X189.126 Y157.730 Z10.000 F300.000 
G2 X190.915 Y158.015 Z10.000 I2.149 J-7.730 F300.000 
G2 X191.635 Y141.985 Z10.000 I0.360 J-8.015 F300.000 
G2 X189.126 Y157.730 Z10.000 I-0.360 J8.015 F300.000 
G1 X189.126 Y157.730 Z8.500 F300.000 
G2 X190.915 Y158.015 Z8.500 I2.149 J-7.730 F300.000 
G2 X191.635 Y141.985 Z8.500 I0.360 J-8.015 F300.000 
G2 X189.126 Y157.730 Z8.500 I-0.360 J8.015 F300.000 
G0 Z18.000 
G0 X189.129 Y157.723 Z18.000 
G0 X189.129 Y157.723 Z16.000 
G1 X189.129 Y157.723 Z8.500 F300.000 
G1 X183.541 Y152.135 Z8.500 F300.000 
G2 X189.129 Y157.723 Z8.500 I7.705 J-2.118 F300.000 
G2 X193.382 Y157.734 Z8.500 I2.146 J-7.499 F300.000 
G1 X183.536 Y147.887 Z8.500 F300.000 
G3 X184.957 Y145.066 Z8.500 I7.551 J2.037 F300.000 
G1 X196.212 Y156.321 Z8.500 F300.000 
G2 X198.193 Y154.059 Z8.500 I-4.814 J-6.216 F300.000 
G1 X187.220 Y143.086 Z8.500 F300.000 
G3 X190.407 Y142.030 Z8.500 I3.959 J6.616 F300.000 
G1 X199.246 Y150.869 Z8.500 F300.000 
G2 X196.820 Y144.201 Z8.500 I-7.943 J-0.886 F300.000 
G1 X196.820 Y144.201 Z7.000 F300.000 
G3 X199.246 Y150.869 Z7.000 I-5.517 J5.783 F300.000 
G1 X190.407 Y142.030 Z7.000 F300.000 
G2 X187.220 Y143.086 Z7.000 I0.772 J7.671 F300.000 
G1 X198.193 Y154.059 Z7.000 F300.000 
G3 X196.212 Y156.321 Z7.000 I-6.795 J-3.954 F300.000 
G1 X184.957 Y145.066 Z7.000 F300.000 
G2 X183.536 Y147.887 Z7.000 I6.129 J4.858 F300.000 
G1 X193.382 Y157.734 Z7.000 F300.000 
G3 X189.129 Y157.723 Z7.000 I-2.108 J-7.509 F300.000 
G3 X183.541 Y152.135 Z7.000 I2.118 J-7.705 F300.000 
G1 X189.129 Y157.723 Z7.000 F300.000 
G0 Z18.000 
G0 X189.126 Y157.730 Z18.000 
G0 X189.126 Y157.730 Z16.000 
G1 X189.126 Y157.730 Z7.000 F300.000 
G2 X190.915 Y158.015 Z7.000 I2.149 J-7.730 F300.000 
G2 X191.635 Y141.985 Z7.000 I0.360 J-8.015 F300.000 
G2 X189.126 Y157.730 Z7.000 I-0.360 J8.015 F300.000 
G1 X189.126 Y157.730 Z5.500 F300.000 
G2 X190.915 Y158.015 Z5.500 I2.149 J-7.730 F300.000 
G2 X191.635 Y141.985 Z5.500 I0.360 J-8.015 F300.000 
G2 X189.126 Y157.730 Z5.500 I-0.360 J8.015 F300.000 
G0 Z18.000 
G0 X189.129 Y157.723 Z18.000 
G0 X189.129 Y157.723 Z16.000 
G1 X189.129 Y157.723 Z5.500 F300.000 
G1 X183.541 Y152.135 Z5.500 F300.000 
G2 X189.129 Y157.723 Z5.500 I7.705 J-2.118 F300.000 
G2 X193.382 Y157.734 Z5.500 I2.146 J-7.499 F300.000 
G1 X183.536 Y147.887 Z5.500 F300.000 
G3 X184.957 Y145.066 Z5.500 I7.551 J2.037 F300.000 
G1 X196.212 Y156.321 Z5.500 F300.000 
G2 X198.193 Y154.059 Z5.500 I-4.814 J-6.216 F300.000 
G1 X187.220 Y143.086 Z5.500 F300.000 
G3 X190.407 Y142.030 Z5.500 I3.959 J6.616 F300.000 
G1 X199.246 Y150.869 Z5.500 F300.000 
G2 X196.820 Y144.201 Z5.500 I-7.943 J-0.886 F300.000 
G1 X196.820 Y144.201 Z4.000 F300.000 
G3 X199.246 Y150.869 Z4.000 I-5.517 J5.783 F300.000 
G1 X190.407 Y142.030 Z4.000 F300.000 
G2 X187.220 Y143.086 Z4.000 I0.772 J7.671 F300.000 
G1 X198.193 Y154.059 Z4.000 F300.000 
G3 X196.212 Y156.321 Z4.000 I-6.795 J-3.954 F300.000 
G1 X184.957 Y145.066 Z4.000 F300.000 
G2 X183.536 Y147.887 Z4.000 I6.129 J4.858 F300.000 
G1 X193.382 Y157.734 Z4.000 F300.000 
G3 X189.129 Y157.723 Z4.000 I-2.108 J-7.509 F300.000 
G3 X183.541 Y152.135 Z4.000 I2.118 J-7.705 F300.000 
G1 X189.129 Y157.723 Z4.000 F300.000 
G0 Z18.000 
G0 X189.126 Y157.730 Z18.000 
G0 X189.126 Y157.730 Z16.000 
G1 X189.126 Y157.730 Z4.000 F300.000 
G2 X190.915 Y158.015 Z4.000 I2.149 J-7.730 F300.000 
G2 X191.635 Y141.985 Z4.000 I0.360 J-8.015 F300.000 
G2 X189.126 Y157.730 Z4.000 I-0.360 J8.015 F300.000 
G1 X189.126 Y157.730 Z2.500 F300.000 
G2 X190.915 Y158.015 Z2.500 I2.149 J-7.730 F300.000 
G2 X191.635 Y141.985 Z2.500 I0.360 J-8.015 F300.000 
G2 X189.126 Y157.730 Z2.500 I-0.360 J8.015 F300.000 
G0 Z18.000 
G0 X189.129 Y157.723 Z18.000 
G0 X189.129 Y157.723 Z16.000 
G1 X189.129 Y157.723 Z2.500 F300.000 
G1 X183.541 Y152.135 Z2.500 F300.000 
G2 X189.129 Y157.723 Z2.500 I7.705 J-2.118 F300.000 
G2 X193.382 Y157.734 Z2.500 I2.146 J-7.499 F300.000 
G1 X183.536 Y147.887 Z2.500 F300.000 
G3 X184.957 Y145.066 Z2.500 I7.551 J2.037 F300.000 
G1 X196.212 Y156.321 Z2.500 F300.000 
G2 X198.193 Y154.059 Z2.500 I-4.814 J-6.216 F300.000 
G1 X187.220 Y143.086 Z2.500 F300.000 
G3 X190.407 Y142.030 Z2.500 I3.959 J6.616 F300.000 
G1 X199.246 Y150.869 Z2.500 F300.000 
G2 X196.820 Y144.201 Z2.500 I-7.943 J-0.886 F300.000 
G1 X196.820 Y144.201 Z1.000 F300.000 
G3 X199.246 Y150.869 Z1.000 I-5.517 J5.783 F300.000 
G1 X190.407 Y142.030 Z1.000 F300.000 
G2 X187.220 Y143.086 Z1.000 I0.772 J7.671 F300.000 
G1 X198.193 Y154.059 Z1.000 F300.000 
G3 X196.212 Y156.321 Z1.000 I-6.795 J-3.954 F300.000 
G1 X184.957 Y145.066 Z1.000 F300.000 
G2 X183.536 Y147.887 Z1.000 I6.129 J4.858 F300.000 
G1 X193.382 Y157.734 Z1.000 F300.000 
G3 X189.129 Y157.723 Z1.000 I-2.108 J-7.509 F300.000 
G3 X183.541 Y152.135 Z1.000 I2.118 J-7.705 F300.000 
G1 X189.129 Y157.723 Z1.000 F300.000 
G0 Z18.000 
G0 X189.126 Y157.730 Z18.000 
G0 X189.126 Y157.730 Z16.000 
G1 X189.126 Y157.730 Z1.000 F300.000 
G2 X190.915 Y158.015 Z1.000 I2.149 J-7.730 F300.000 
G2 X191.635 Y141.985 Z1.000 I0.360 J-8.015 F300.000 
G2 X189.126 Y157.730 Z1.000 I-0.360 J8.015 F300.000 
G1 X189.126 Y157.730 Z0.000 F300.000 
G2 X190.915 Y158.015 Z0.000 I2.149 J-7.730 F300.000 
G2 X191.635 Y141.985 Z0.000 I0.360 J-8.015 F300.000 
G2 X189.126 Y157.730 Z0.000 I-0.360 J8.015 F300.000 
G0 Z18.000 
G0 X189.129 Y157.723 Z18.000 
G0 X189.129 Y157.723 Z16.000 
G1 X189.129 Y157.723 Z0.000 F300.000 
G1 X183.541 Y152.135 Z0.000 F300.000 
G2 X189.129 Y157.723 Z0.000 I7.705 J-2.118 F300.000 
G2 X193.382 Y157.734 Z0.000 I2.146 J-7.499 F300.000 
G1 X183.536 Y147.887 Z0.000 F300.000 
G3 X184.957 Y145.066 Z0.000 I7.551 J2.037 F300.000 
G1 X196.212 Y156.321 Z0.000 F300.000 
G2 X198.193 Y154.059 Z0.000 I-4.814 J-6.216 F300.000 
G1 X187.220 Y143.086 Z0.000 F300.000 
G3 X190.407 Y142.030 Z0.000 I3.959 J6.616 F300.000 
G1 X199.246 Y150.869 Z0.000 F300.000 
G2 X196.820 Y144.201 Z0.000 I-7.943 J-0.886 F300.000 
G0 Z18.000 
G0 Z18.000 
G0 X196.820 Y144.201 
G0 X156.395 Y113.571 
G0 X156.395 Y113.571 Z16.000 
G1 X156.395 Y113.571 Z11.500 F300.000 
G2 X150.360 Y100.710 Z11.500 I-6.395 J-4.846 F300.000 
G2 X149.640 Y116.740 Z11.500 I-0.360 J8.015 F300.000 
G2 X156.395 Y113.571 Z11.500 I0.360 J-8.015 F300.000 
G0 Z18.000 
G0 X147.854 Y116.448 Z18.000 
G0 X147.854 Y116.448 Z16.000 
G1 X147.854 Y116.448 Z11.500 F300.000 
G1 X142.266 Y110.860 Z11.500 F300.000 
G2 X147.854 Y116.448 Z11.500 I7.705 J-2.118 F300.000 
G2 X152.107 Y116.459 Z11.500 I2.146 J-7.499 F300.000 
G1 X142.261 Y106.612 Z11.500 F300.000 
G3 X143.682 Y103.791 Z11.500 I7.551 J2.037 F300.000 
G1 X154.937 Y115.046 Z11.500 F300.000 
G2 X156.918 Y112.784 Z11.500 I-4.814 J-6.216 F300.000 
G1 X145.945 Y101.811 Z11.500 F300.000 
G3 X149.132 Y100.755 Z11.500 I3.959 J6.616 F300.000 
G1 X157.971 Y109.594 Z11.500 F300.000 
G2 X155.545 Y102.926 Z11.500 I-7.943 J-0.886 F300.000 
G1 X155.545 Y102.926 Z10.000 F300.000 
G3 X157.971 Y109.594 Z10.000 I-5.517 J5.783 F300.000 
G1 X149.132 Y100.755 Z10.000 F300.000 
G2 X145.945 Y101.811 Z10.000 I0.772 J7.671 F300.000 
G1 X156.918 Y112.784 Z10.000 F300.000 
G3 X154.937 Y115.046 Z10.000 I-6.795 J-3.954 F300.000 
G1 X143.682 Y103.791 Z10.000 F300.000 
G2 X142.261 Y106.612 Z10.000 I6.129 J4.858 F300.000 
G1 X152.107 Y116.459 Z10.000 F300.000 
G3 X147.854 Y116.448 Z10.000 I-2.108 J-7.509 F300.000 
G3 X142.266 Y110.860 Z10.000 I2.118 J-7.705 F300.000 
G1 X147.854 Y116.448 Z10.000 F300.000 
G0 Z18.000 
G0 X147.851 Y116.455 Z18.000 
G0 X147.851 Y116.455 Z16.000 
G1 X147.851 Y116.455 Z10.000 F300.000 
G2 X149.640 Y116.740 Z10.000 I2.149 J-7.730 F300.000 
G2 X150.360 Y100.710 Z10.000 I0.360 J-8.015 F300.000 
G2 X147.851 Y116.455 Z10.000 I-0.360 J8.015 F300.000 
G1 X147.851 Y116.455 Z8.500 F300.000 
G2 X149.640 Y116.740 Z8.500 I2.149 J-7.730 F300.000 
G2 X150.360 Y100.710 Z8.500 I0.360 J-8.015 F300.000 
G2 X147.851 Y116.455 Z8.500 I-0.360 J8.015 F300.000 
G0 Z18.000 
G0 X147.854 Y116.448 Z18.000 
G0 X147.854 Y116.448 Z16.000 
G1 X147.854 Y116.448 Z8.500 F300.000 
G1 X142.266 Y110.860 Z8.500 F300.000 
G2 X147.854 Y116.448 Z8.500 I7.705 J-2.118 F300.000 
G2 X152.107 Y116.459 Z8.500 I2.146 J-7.499 F300.000 
G1 X142.261 Y106.612 Z8.500 F300.000 
G3 X143.682 Y103.791 Z8.500 I7.551 J2.037 F300.000 
G1 X154.937 Y115.046 Z8.500 F300.000 
G2 X156.918 Y112.784 Z8.500 I-4.814 J-6.216 F300.000 
G1 X145.945 Y101.811 Z8.500 F300.000 
G3 X149.132 Y100.755 Z8.500 I3.959 J6.616 F300.000 
G1 X157.971 Y109.594 Z8.500 F300.000 
G2 X155.545 Y102.926 Z8.500 I-7.943 J-0.886 F300.000 
G1 X155.545 Y102.926 Z7.000 F300.000 
G3 X157.971 Y109.594 Z7.000 I-5.517 J5.783 F300.000 
G1 X149.132 Y100.755 Z7.000 F300.000 
G2 X145.945 Y101.811 Z7.000 I0.772 J7.671 F300.000 
G1 X156.918 Y112.784 Z7.000 F300.000 
G3 X154.937 Y115.046 Z7.000 I-6.795 J-3.954 F300.000 
G1 X143.682 Y103.791 Z7.000 F300.000 
G2 X142.261 Y106.612 Z7.000 I6.129 J4.858 F300.000 
G1 X152.107 Y116.459 Z7.000 F300.000 
G3 X147.854 Y116.448 Z7.000 I-2.108 J-7.509 F300.000 
G3 X142.266 Y110.860 Z7.000 I2.118 J-7.705 F300.000 
G1 X147.854 Y116.448 Z7.000 F300.000 
G0 Z18.000 
G0 X147.851 Y116.455 Z18.000 
G0 X147.851 Y116.455 Z16.000 
G1 X147.851 Y116.455 Z7.000 F300.000 
G2 X149.640 Y116.740 Z7.000 I2.149 J-7.730 F300.000 
G2 X150.360 Y100.710 Z7.000 I0.360 J-8.015 F300.000 
G2 X147.851 Y116.455 Z7.000 I-0.360 J8.015 F300.000 
G1 X147.851 Y116.455 Z5.500 F300.000 
G2 X149.640 Y116.740 Z5.500 I2.149 J-7.730 F300.000 
G2 X150.360 Y100.710 Z5.500 I0.360 J-8.015 F300.000 
G2 X147.851 Y116.455 Z5.500 I-0.360 J8.015 F300.000 
G0 Z18.000 
G0 X147.854 Y116.448 Z18.000 
G0 X147.854 Y116.448 Z16.000 
G1 X147.854 Y116.448 Z5.500 F300.000 
G1 X142.266 Y110.860 Z5.500 F300.000 
G2 X147.854 Y116.448 Z5.500 I7.705 J-2.118 F300.000 
G2 X152.107 Y116.459 Z5.500 I2.146 J-7.499 F300.000 
G1 X142.261 Y106.612 Z5.500 F300.000 
G3 X143.682 Y103.791 Z5.500 I7.551 J2.037 F300.000 
G1 X154.937 Y115.046 Z5.500 F300.000 
G2 X156.918 Y112.784 Z5.500 I-4.814 J-6.216 F300.000 
G1 X145.945 Y101.811 Z5.500 F300.000 
G3 X149.132 Y100.755 Z5.500 I3.959 J6.616 F300.000 
G1 X157.971 Y109.594 Z5.500 F300.000 
G2 X155.545 Y102.926 Z5.500 I-7.943 J-0.886 F300.000 
G1 X155.545 Y102.926 Z4.000 F300.000 
G3 X157.971 Y109.594 Z4.000 I-5.517 J5.783 F300.000 
G1 X149.132 Y100.755 Z4.000 F300.000 
G2 X145.945 Y101.811 Z4.000 I0.772 J7.671 F300.000 
G1 X156.918 Y112.784 Z4.000 F300.000 
G3 X154.937 Y115.046 Z4.000 I-6.795 J-3.954 F300.000 
G1 X143.682 Y103.791 Z4.000 F300.000 
G2 X142.261 Y106.612 Z4.000 I6.129 J4.858 F300.000 
G1 X152.107 Y116.459 Z4.000 F300.000 
G3 X147.854 Y116.448 Z4.000 I-2.108 J-7.509 F300.000 
G3 X142.266 Y110.860 Z4.000 I2.118 J-7.705 F300.000 
G1 X147.854 Y116.448 Z4.000 F300.000 
G0 Z18.000 
G0 X147.851 Y116.455 Z18.000 
G0 X147.851 Y116.455 Z16.000 
G1 X147.851 Y116.455 Z4.000 F300.000 
G2 X149.640 Y116.740 Z4.000 I2.149 J-7.730 F300.000 
G2 X150.360 Y100.710 Z4.000 I0.360 J-8.015 F300.000 
G2 X147.851 Y116.455 Z4.000 I-0.360 J8.015 F300.000 
G1 X147.851 Y116.455 Z2.500 F300.000 
G2 X149.640 Y116.740 Z2.500 I2.149 J-7.730 F300.000 
G2 X150.360 Y100.710 Z2.500 I0.360 J-8.015 F300.000 
G2 X147.851 Y116.455 Z2.500 I-0.360 J8.015 F300.000 
G0 Z18.000 
G0 X147.854 Y116.448 Z18.000 
G0 X147.854 Y116.448 Z16.000 
G1 X147.854 Y116.448 Z2.500 F300.000 
G1 X142.266 Y110.860 Z2.500 F300.000 
G2 X147.854 Y116.448 Z2.500 I7.705 J-2.118 F300.000 
G2 X152.107 Y116.459 Z2.500 I2.146 J-7.499 F300.000 
G1 X142.261 Y106.612 Z2.500 F300.000 
G3 X143.682 Y103.791 Z2.500 I7.551 J2.037 F300.000 
G1 X154.937 Y115.046 Z2.500 F300.000 
G2 X156.918 Y112.784 Z2.500 I-4.814 J-6.216 F300.000 
G1 X145.945 Y101.811 Z2.500 F300.000 
G3 X149.132 Y100.755 Z2.500 I3.959 J6.616 F300.000 
G1 X157.971 Y109.594 Z2.500 F300.000 
G2 X155.545 Y102.926 Z2.500 I-7.943 J-0.886 F300.000 
G1 X155.545 Y102.926 Z1.000 F300.000 
G3 X157.971 Y109.594 Z1.000 I-5.517 J5.783 F300.000 
G1 X149.132 Y100.755 Z1.000 F300.000 
G2 X145.945 Y101.811 Z1.000 I0.772 J7.671 F300.000 
G1 X156.918 Y112.784 Z1.000 F300.000 
G3 X154.937 Y115.046 Z1.000 I-6.795 J-3.954 F300.000 
G1 X143.682 Y103.791 Z1.000 F300.000 
G2 X142.261 Y106.612 Z1.000 I6.129 J4.858 F300.000 
G1 X152.107 Y116.459 Z1.000 F300.000 
G3 X147.854 Y116.448 Z1.000 I-2.108 J-7.509 F300.000 
G3 X142.266 Y110.860 Z1.000 I2.118 J-7.705 F300.000 
G1 X147.854 Y116.448 Z1.000 F300.000 
G0 Z18.000 
G0 X147.851 Y116.455 Z18.000 
G0 X147.851 Y116.455 Z16.000 
G1 X147.851 Y116.455 Z1.000 F300.000 
G2 X149.640 Y116.740 Z1.000 I2.149 J-7.730 F300.000 
G2 X150.360 Y100.710 Z1.000 I0.360 J-8.015 F300.000 
G2 X147.851 Y116.455 Z1.000 I-0.360 J8.015 F300.000 
G1 X147.851 Y116.455 Z0.000 F300.000 
G2 X149.640 Y116.740 Z0.000 I2.149 J-7.730 F300.000 
G2 X150.360 Y100.710 Z0.000 I0.360 J-8.015 F300.000 
G2 X147.851 Y116.455 Z0.000 I-0.360 J8.015 F300.000 
G0 Z18.000 
G0 X147.854 Y116.448 Z18.000 
G0 X147.854 Y116.448 Z16.000 
G1 X147.854 Y116.448 Z0.000 F300.000 
G1 X142.266 Y110.860 Z0.000 F300.000 
G2 X147.854 Y116.448 Z0.000 I7.705 J-2.118 F300.000 
G2 X152.107 Y116.459 Z0.000 I2.146 J-7.499 F300.000 
G1 X142.261 Y106.612 Z0.000 F300.000 
G3 X143.682 Y103.791 Z0.000 I7.551 J2.037 F300.000 
G1 X154.937 Y115.046 Z0.000 F300.000 
G2 X156.918 Y112.784 Z0.000 I-4.814 J-6.216 F300.000 
G1 X145.945 Y101.811 Z0.000 F300.000 
G3 X149.132 Y100.755 Z0.000 I3.959 J6.616 F300.000 
G1 X157.971 Y109.594 Z0.000 F300.000 
G2 X155.545 Y102.926 Z0.000 I-7.943 J-0.886 F300.000 
G0 Z18.000 
G0 Z18.000 
(finish operation: Pocket_Shape)
(begin operation: Profile)
(machine: not set, mm/min)
(Profile) 
(Compensated Tool Path. Diameter: 3.0) 
G0 Z18.000 
G0 X195.962 Y195.962 
G0 Z16.000 
G1 X195.962 Y195.962 Z11.500 F300.000 
G2 X153.466 Y85.093 Z11.500 I-45.962 J-45.962 F300.000 
G2 X85.092 Y146.546 Z11.500 I-3.466 J64.907 F300.000 
G2 X146.559 Y214.909 Z11.500 I64.908 J3.454 F300.000 
G2 X195.962 Y195.962 Z11.500 I3.441 J-64.909 F300.000 
G1 X195.962 Y195.962 Z10.000 F300.000 
G2 X153.466 Y85.093 Z10.000 I-45.962 J-45.962 F300.000 
G2 X85.092 Y146.546 Z10.000 I-3.466 J64.907 F300.000 
G2 X146.559 Y214.909 Z10.000 I64.908 J3.454 F300.000 
G2 X195.962 Y195.962 Z10.000 I3.441 J-64.909 F300.000 
G1 X195.962 Y195.962 Z8.500 F300.000 
G2 X153.466 Y85.093 Z8.500 I-45.962 J-45.962 F300.000 
G2 X85.092 Y146.546 Z8.500 I-3.466 J64.907 F300.000 
G2 X146.559 Y214.909 Z8.500 I64.908 J3.454 F300.000 
G2 X195.962 Y195.962 Z8.500 I3.441 J-64.909 F300.000 
G1 X195.962 Y195.962 Z7.000 F300.000 
G2 X153.466 Y85.093 Z7.000 I-45.962 J-45.962 F300.000 
G2 X85.092 Y146.546 Z7.000 I-3.466 J64.907 F300.000 
G2 X146.559 Y214.909 Z7.000 I64.908 J3.454 F300.000 
G2 X195.962 Y195.962 Z7.000 I3.441 J-64.909 F300.000 
G1 X195.962 Y195.962 Z5.500 F300.000 
G2 X153.466 Y85.093 Z5.500 I-45.962 J-45.962 F300.000 
G2 X85.092 Y146.546 Z5.500 I-3.466 J64.907 F300.000 
G2 X146.559 Y214.909 Z5.500 I64.908 J3.454 F300.000 
G2 X195.962 Y195.962 Z5.500 I3.441 J-64.909 F300.000 
G1 X195.962 Y195.962 Z4.000 F300.000 
G2 X153.466 Y85.093 Z4.000 I-45.962 J-45.962 F300.000 
G2 X85.092 Y146.546 Z4.000 I-3.466 J64.907 F300.000 
G2 X146.559 Y214.909 Z4.000 I64.908 J3.454 F300.000 
G2 X195.962 Y195.962 Z4.000 I3.441 J-64.909 F300.000 
G1 X195.962 Y195.962 Z2.500 F300.000 
G2 X153.466 Y85.093 Z2.500 I-45.962 J-45.962 F300.000 
G2 X85.092 Y146.546 Z2.500 I-3.466 J64.907 F300.000 
G2 X146.559 Y214.909 Z2.500 I64.908 J3.454 F300.000 
G2 X195.962 Y195.962 Z2.500 I3.441 J-64.909 F300.000 
G1 X195.962 Y195.962 Z1.000 F300.000 
G2 X153.466 Y85.093 Z1.000 I-45.962 J-45.962 F300.000 
G2 X85.092 Y146.546 Z1.000 I-3.466 J64.907 F300.000 
G2 X146.559 Y214.909 Z1.000 I64.908 J3.454 F300.000 
G2 X195.962 Y195.962 Z1.000 I3.441 J-64.909 F300.000 
G1 X195.962 Y195.962 Z0.000 F300.000 
G2 X153.466 Y85.093 Z0.000 I-45.962 J-45.962 F300.000 
G2 X85.092 Y146.546 Z0.000 I-3.466 J64.907 F300.000 
G2 X146.559 Y214.909 Z0.000 I64.908 J3.454 F300.000 
G2 X195.962 Y195.962 Z0.000 I3.441 J-64.909 F300.000 
G0 Z18.000 
G0 Z18.000 
(finish operation: Profile)
(begin postamble)
M05
G17 G54 G90 G80 G40
M2
